X: 29911
T: O'Rourke's
R: reel
M: 4/4
K: Amixolydian
c3e fce2|eAce dfed|ceAe fdd2|fage dfed|
c3e fce2|eAce dfed|ceae fdd2|fage dfea||
g2fd eBef|gfed eaa2|gefd edBd|f/g/a ge defa|
g2fd eBef|gfed eaa2|bfaf gfed|eaae d3e||

